exported-svg/watch.svg

<svg height="24" viewBox="0 0 24 24" width="24" xmlns="http://www.w3.org/2000/svg"><path d="m16.4119438 18.4002165c-1.1389433.6976336-2.4784799 1.0997835-3.9119438 1.0997835-1.4379109 0-2.7813109-.404649-3.92253799-1.1062848l.25050924 2.7412889c.07005441.7752949.72155337 1.3681628 1.50202875 1.3650126l4.3320207.0000041c.7784547.0031461 1.4299536-.5897218 1.5000541-1.3655231zm1.0773055-.8003466-.331278 3.625126c-.1167571 1.2921546-1.2025804 2.2802601-2.4979713 2.2750416h-4.3279793c-1.29741165.0052185-2.38323494-.982887-2.49994594-2.2745352l-.33221303-3.6353598c-1.53429314-1.3732975-2.49986173-3.3689597-2.49986173-5.5901425 0-2.22643282.97013844-4.22627766 2.51075067-5.59986989l.33127843-3.62512989c.1163349-1.28737075 1.19487261-2.27377841 2.4879709-2.27503366h4.3479793c1.2974116-.00522257 2.3832349.98288296 2.4999459 2.27453113l.3331058 3.64512856c1.527969 1.37298379 2.488969 3.36445199 2.488969 5.58037375 0 2.2264328-.9701384 4.2262777-2.5107507 5.5998699zm-1.0561149-11.98705815-.2511057-2.74781587c-.0700544-.77529489-.7215533-1.36816275-1.5020287-1.36501263l-4.349521-.00000023c-.77557936.00074301-1.42270696.59259215-1.49255376 1.36551929l-.24986905 2.73428123c1.13894326-.6976336 2.47847991-1.09978354 3.91194381-1.09978354 1.4423637 0 2.7896303.40715905 3.9331344 1.11281175zm-8.16150614 1.45034614c-1.39056536 1.1921238-2.27162826 2.96159131-2.27162826 4.93684211 0 3.5898509 2.91014913 6.5 6.5 6.5 1.5777815 0 3.0242646-.5621551 4.1500827-1.4970986.0237777-.0246249.0500223-.046768.078289-.0660593 1.3905654-1.1921238 2.2716283-2.9615913 2.2716283-4.9368421 0-3.58985087-2.9101491-6.5-6.5-6.5-1.5777815 0-3.02426455.56215506-4.15008275 1.4970986-.02377762.02462485-.05002221.04676804-.07828899.06605929zm4.72837174 1.93684211v2.7928932l1.3535534 1.3535534c.1952621.1952622.1952621.5118446 0 .7071068-.1952622.1952621-.5118446.1952621-.7071068 0l-1.5-1.5c-.0937682-.0937682-.1464466-.2209452-.1464466-.3535534v-3c0-.27614237.2238576-.5.5-.5s.5.22385763.5.5z"/></svg>

<?xml version="1.0" encoding="UTF-8"?>
<svg width="24px" height="24px" viewBox="0 0 24 24" version="1.1" xmlns="http://www.w3.org/2000/svg" xmlns:xlink="http://www.w3.org/1999/xlink">
    <!-- Generator: Sketch 55.2 (78181) - https://sketchapp.com -->
    <title>watch</title>
    <desc>Created with Sketch.</desc>
    <g id="watch" stroke="none" stroke-width="1" fill="none" fill-rule="evenodd">
        <path d="M16.4119438,18.4002165 C15.2730005,19.0978501 13.9334639,19.5 12.5,19.5 C11.0620891,19.5 9.7186891,19.095351 8.57746201,18.3937152 L8.82797125,21.1350041 C8.89802566,21.910299 9.54952462,22.5031669 10.33,22.5000167 L14.6620207,22.5000208 C15.4404754,22.5031669 16.0919743,21.910299 16.1620748,21.1344977 L16.4119438,18.4002165 Z M17.4892493,17.5998699 L17.1579713,21.2249959 C17.0412142,22.5171505 15.9553909,23.505256 14.66,23.5000375 L10.3320207,23.5000375 C9.03460905,23.505256 7.94878576,22.5171505 7.83207476,21.2255023 L7.49986173,17.5901425 C5.96556859,16.216845 5,14.2211828 5,12 C5,9.77356718 5.97013844,7.77372234 7.51075067,6.40013011 L7.8420291,2.77500022 C7.958364,1.48762947 9.03690171,0.501221813 10.33,0.499966564 L14.6779793,0.499966564 C15.9753909,0.494743991 17.0612142,1.48284952 17.1779252,2.77449769 L17.511031,6.41962625 C19.039,7.79261004 20,9.78407824 20,12 C20,14.2264328 19.0298616,16.2262777 17.4892493,17.5998699 Z M16.4331344,5.61281175 L16.1820287,2.86499588 C16.1119743,2.08970099 15.4604754,1.49683313 14.68,1.49998325 L10.330479,1.49998302 C9.55489964,1.50072603 8.90777204,2.09257517 8.83792524,2.86550231 L8.58805619,5.59978354 C9.72699945,4.90214994 11.0665361,4.5 12.5,4.5 C13.9423637,4.5 15.2896303,4.90715905 16.4331344,5.61281175 Z M8.27162826,7.06315789 C6.8810629,8.25528169 6,10.0247492 6,12 C6,15.5898509 8.91014913,18.5 12.5,18.5 C14.0777815,18.5 15.5242646,17.9378449 16.6500827,17.0029014 C16.6738604,16.9782765 16.700105,16.9561334 16.7283717,16.9368421 C18.1189371,15.7447183 19,13.9752508 19,12 C19,8.41014913 16.0898509,5.5 12.5,5.5 C10.9222185,5.5 9.47573545,6.06215506 8.34991725,6.9970986 C8.32613963,7.02172345 8.29989504,7.04386664 8.27162826,7.06315789 Z" id="Combined-Shape" fill="#000000" fill-rule="nonzero"></path>
        <path d="M13,9 C13,8.72385763 12.7761424,8.5 12.5,8.5 C12.2238576,8.5 12,8.72385763 12,9 L12,12 C12,12.1326082 12.0526784,12.2597852 12.1464466,12.3535534 L13.6464466,13.8535534 C13.8417088,14.0488155 14.1582912,14.0488155 14.3535534,13.8535534 C14.5488155,13.6582912 14.5488155,13.3417088 14.3535534,13.1464466 L13,11.7928932 L13,9 Z" id="Path" fill="#000000" fill-rule="nonzero"></path>
    </g>
</svg>
